; generated by PrusaSlicer 2.4.0 on 2023-05-15 at 06:34:46 UTC

; 

; external perimeters extrusion width = 0.45mm
; perimeters extrusion width = 0.45mm
; infill extrusion width = 0.45mm
; solid infill extrusion width = 0.45mm
; top infill extrusion width = 0.45mm
; first layer extrusion width = 0.42mm

M201 X9000 Y9000 Z500 E10000 ; sets maximum accelerations, mm/sec^2
M203 X500 Y500 Z12 E120 ; sets maximum feedrates, mm/sec
M204 P1500 R1500 T1500 ; sets acceleration (P, T) and retract acceleration (R), mm/sec^2
M205 X10.00 Y10.00 Z0.20 E2.50 ; sets the jerk limits, mm/sec
M205 S0 T0 ; sets the minimum extruding and travel feed rate, mm/sec
M107
M190 S60 ; set bed temperature and wait for it to be reached
M104 S210 ; set temperature
;TYPE:Custom
G28 ; home all axes
G1 Z5 F5000 ; lift nozzle
M109 S210 ; set temperature and wait for it to be reached
G21 ; set units to millimeters
G90 ; use absolute coordinates
M82 ; use absolute distances for extrusion
G92 E0
; Filament gcode
M107
;LAYER_CHANGE
;Z:0.3
;HEIGHT:0.3
G1 Z.3 F7800
G1 E-2 F2400
G92 E0
G1 X35.415 Y50.573 F7800
G1 E2 F2400
;TYPE:Skirt/Brim
;WIDTH:0.42
G1 F1800
G1 X37.251 Y49.405 E2.0965
G1 X39.261 Y48.574 E2.19302
G1 X41.386 Y48.104 E2.28954
G1 X43.01 Y47.986 E2.36177
G1 X157.543 Y48.01 E7.44185
G1 X159.701 Y48.296 E7.53841
G1 X161.777 Y48.952 E7.63496
G1 X163.707 Y49.958 E7.73151
G1 X164.584 Y50.572 E7.779
G1 X166.19 Y52.042 E7.87555
G1 X167.517 Y53.769 E7.97216
G1 X168.524 Y55.7 E8.06877
G1 X169.18 Y57.777 E8.16538
G1 X169.465 Y59.937 E8.26199
G1 X169.465 Y140.068 E11.81622
G1 X169.179 Y142.227 E11.91278
G1 X168.902 Y143.261 E11.96029
G1 X168.07 Y145.273 E12.05683
G1 X166.902 Y147.109 E12.15337
G1 X166.19 Y147.958 E12.20251
G1 X164.585 Y149.427 E12.29902
G1 X162.749 Y150.595 E12.39552
G1 X160.739 Y151.426 E12.49203
G1 X158.614 Y151.896 E12.58856
G1 X156.989 Y152.014 E12.66079
G1 X43.011 Y152.014 E17.71631
G1 X41.39 Y151.897 E17.78839
G1 X40.299 Y151.704 E17.83753
G1 X39.264 Y151.427 E17.88503
G1 X37.253 Y150.596 E17.98158
G1 X35.416 Y149.428 E18.07812
G1 X34.567 Y148.715 E18.12726
G1 X33.098 Y147.11 E18.22376
G1 X31.931 Y145.275 E18.32027
G1 X31.099 Y143.264 E18.41678
G1 X30.629 Y141.139 E18.51331
G1 X30.511 Y139.515 E18.58554
G1 X30.511 Y60.485 E22.09088
G1 X30.629 Y58.864 E22.16296
G1 X30.821 Y57.773 E22.2121
G1 X31.098 Y56.739 E22.2596
G1 X31.93 Y54.727 E22.35615
G1 X33.098 Y52.891 E22.45269
G1 X33.81 Y52.042 E22.50183
G1 X35.371 Y50.614 E22.59567
G1 E20.59567 F2400
G92 E0
G1 X53.53 Y120.049 F7800
G1 E2 F2400
;TYPE:Perimeter
G1 F1800
G1 X53.695 Y120.021 E2.00742
G1 X54.293 Y120.021 E2.03393
G1 X54.882 Y120.122 E2.06043
G1 X55.445 Y120.321 E2.08694
G1 X55.967 Y120.612 E2.11344
G1 X56.432 Y120.988 E2.13995
G1 X56.827 Y121.436 E2.16645
G1 X57.14 Y121.945 E2.19296
G1 X57.363 Y122.5 E2.21946
G1 X57.487 Y123.078 E2.2457
G1 X57.517 Y123.544 E2.26642
G1 X57.44 Y124.268 E2.2987
G1 X57.263 Y124.845 E2.32547
G1 X56.994 Y125.378 E2.35198
G1 X56.639 Y125.859 E2.37848
G1 X56.207 Y126.272 E2.40499
G1 X55.712 Y126.607 E2.43149
G1 X55.168 Y126.853 E2.458
G1 X54.589 Y127.004 E2.4845
G1 X53.994 Y127.054 E2.51101
G1 X53.399 Y127.004 E2.53752
G1 X52.82 Y126.853 E2.56402
G1 X52.276 Y126.607 E2.59053
G1 X51.781 Y126.272 E2.61703
G1 X51.349 Y125.859 E2.64354
G1 X50.994 Y125.378 E2.67004
G1 X50.725 Y124.845 E2.69655
G1 X50.55 Y124.273 E2.72305
G1 X50.474 Y123.681 E2.74956
G1 X50.499 Y123.084 E2.77606
G1 X50.625 Y122.5 E2.80257
G1 X50.848 Y121.945 E2.82907
G1 X51.161 Y121.436 E2.85558
G1 X51.556 Y120.988 E2.88208
G1 X52.021 Y120.612 E2.90859
G1 X52.543 Y120.321 E2.93509
G1 X53.106 Y120.122 E2.9616
G1 X53.471 Y120.059 E2.97802
G1 X53.196 Y120.467 F7800
;TYPE:External perimeter
G1 F1800
G1 X53.725 Y120.376 E3.00184
G1 X54.263 Y120.376 E3.02566
G1 X54.792 Y120.467 E3.04948
G1 X55.298 Y120.646 E3.0733
G1 X55.767 Y120.908 E3.09712
G1 X56.185 Y121.245 E3.12094
G1 X56.54 Y121.648 E3.14476
G1 X56.821 Y122.106 E3.16858
G1 X57.021 Y122.604 E3.1924
G1 X57.134 Y123.127 E3.21612
G1 X57.16 Y123.536 E3.23432
G1 X57.09 Y124.196 E3.26375
G1 X56.932 Y124.712 E3.28767
G1 X56.69 Y125.191 E3.31149
G1 X56.371 Y125.623 E3.33531
G1 X55.983 Y125.995 E3.35913
G1 X55.538 Y126.295 E3.38295
G1 X55.049 Y126.517 E3.40677
G1 X54.529 Y126.652 E3.43059
G1 X53.994 Y126.698 E3.45441
G1 X53.459 Y126.652 E3.47823
G1 X52.939 Y126.517 E3.50206
G1 X52.45 Y126.295 E3.52588
G1 X52.005 Y125.995 E3.5497
G1 X51.617 Y125.623 E3.57352
G1 X51.298 Y125.191 E3.59734
G1 X51.056 Y124.712 E3.62116
G1 X50.899 Y124.198 E3.64498
G1 X50.831 Y123.666 E3.6688
G1 X50.853 Y123.129 E3.69262
G1 X50.967 Y122.604 E3.71644
G1 X51.167 Y122.106 E3.74026
G1 X51.448 Y121.648 E3.76408
G1 X51.803 Y121.245 E3.7879
G1 X52.221 Y120.908 E3.81172
G1 X52.69 Y120.646 E3.83554
G1 X53.14 Y120.487 E3.8567
G1 X53.302 Y120.082 F7800
G1 E1.8567 F2400
G92 E0
G1 X53.331 Y79.917 F7800
G1 E2 F2400
;TYPE:Perimeter
G1 F1800
G1 X53.106 Y79.878 E2.01011
G1 X52.543 Y79.679 E2.03661
G1 X52.021 Y79.388 E2.06312
G1 X51.556 Y79.012 E2.08962
G1 X51.161 Y78.564 E2.11613
G1 X50.848 Y78.055 E2.14263
G1 X50.625 Y77.5 E2.16914
G1 X50.499 Y76.916 E2.19564
G1 X50.474 Y76.319 E2.22215
G1 X50.55 Y75.727 E2.24865
G1 X50.725 Y75.155 E2.27516
G1 X50.994 Y74.622 E2.30166
G1 X51.349 Y74.141 E2.32817
G1 X51.781 Y73.728 E2.35467
G1 X52.276 Y73.393 E2.38118
G1 X52.82 Y73.147 E2.40768
G1 X53.399 Y72.996 E2.43419
G1 X53.994 Y72.946 E2.46069
G1 X54.589 Y72.996 E2.4872
G1 X55.168 Y73.147 E2.5137
G1 X55.712 Y73.393 E2.54021
G1 X56.207 Y73.728 E2.56671
G1 X56.639 Y74.141 E2.59322
G1 X56.994 Y74.622 E2.61972
G1 X57.263 Y75.155 E2.64623
G1 X57.44 Y75.732 E2.673
G1 X57.517 Y76.456 E2.70529
G1 X57.487 Y76.922 E2.726
G1 X57.363 Y77.5 E2.75224
G1 X57.14 Y78.055 E2.77875
G1 X56.827 Y78.564 E2.80525
G1 X56.432 Y79.012 E2.83176
G1 X55.967 Y79.388 E2.85826
G1 X55.445 Y79.679 E2.88477
G1 X54.882 Y79.878 E2.91127
G1 X54.293 Y79.979 E2.93778
G1 X53.695 Y79.979 E2.96428
G1 X53.39 Y79.927 E2.97802
G1 X53.725 Y79.624 F7800
;TYPE:External perimeter
G1 F1800
G1 X53.196 Y79.533 E3.00184
G1 X52.69 Y79.354 E3.02566
G1 X52.221 Y79.092 E3.04948
G1 X51.803 Y78.755 E3.0733
G1 X51.448 Y78.352 E3.09712
G1 X51.167 Y77.894 E3.12094
G1 X50.967 Y77.396 E3.14476
G1 X50.853 Y76.871 E3.16858
G1 X50.831 Y76.334 E3.1924
G1 X50.899 Y75.802 E3.21622
G1 X51.056 Y75.288 E3.24004
G1 X51.298 Y74.809 E3.26386
G1 X51.617 Y74.377 E3.28768
G1 X52.005 Y74.005 E3.3115
G1 X52.45 Y73.705 E3.33532
G1 X52.939 Y73.483 E3.35914
G1 X53.459 Y73.348 E3.38296
G1 X53.994 Y73.302 E3.40678
G1 X54.529 Y73.348 E3.4306
G1 X55.049 Y73.483 E3.45442
G1 X55.538 Y73.705 E3.47824
G1 X55.983 Y74.005 E3.50206
G1 X56.371 Y74.377 E3.52588
G1 X56.69 Y74.809 E3.5497
G1 X56.932 Y75.288 E3.57352
G1 X57.09 Y75.804 E3.59744
G1 X57.16 Y76.464 E3.62688
G1 X57.134 Y76.873 E3.64507
G1 X57.021 Y77.396 E3.6688
G1 X56.821 Y77.894 E3.69262
G1 X56.54 Y78.352 E3.71644
G1 X56.185 Y78.755 E3.74026
G1 X55.767 Y79.092 E3.76408
G1 X55.298 Y79.354 E3.7879
G1 X54.792 Y79.533 E3.81172
G1 X54.263 Y79.624 E3.83554
G1 X53.785 Y79.624 E3.8567
G1 X53.497 Y79.952 F7800
G1 E1.8567 F2400
G92 E0
G1 X37.623 Y59.13 F7800
G1 E2 F2400
;TYPE:Perimeter
G1 F1800
G1 X37.771 Y58.578 E2.02537
G1 X38.182 Y57.697 E2.06848
G1 X38.739 Y56.901 E2.11159
G1 X39.426 Y56.214 E2.15469
G1 X40.222 Y55.656 E2.1978
G1 X41.103 Y55.246 E2.24091
G1 X42.042 Y54.994 E2.28402
G1 X43.035 Y54.907 E2.32824
G1 X156.965 Y54.907 E7.38156
G1 X157.958 Y54.994 E7.4258
G1 X158.897 Y55.246 E7.4689
G1 X159.778 Y55.656 E7.51201
G1 X160.574 Y56.214 E7.55512
G1 X161.261 Y56.901 E7.59822
G1 X161.818 Y57.697 E7.64133
G1 X162.229 Y58.578 E7.68444
G1 X162.481 Y59.517 E7.72755
G1 X162.568 Y60.51 E7.77177
G1 X162.568 Y139.49 E11.27492
G1 X162.481 Y140.483 E11.31914
G1 X162.229 Y141.422 E11.36226
G1 X161.818 Y142.303 E11.40536
G1 X161.261 Y143.099 E11.44847
G1 X160.574 Y143.786 E11.49158
G1 X159.778 Y144.344 E11.53468
G1 X158.897 Y144.754 E11.57779
G1 X157.958 Y145.006 E11.62091
G1 X156.965 Y145.093 E11.66513
G1 X43.035 Y145.093 E16.71845
G1 X42.042 Y145.006 E16.76267
G1 X41.103 Y144.754 E16.80579
G1 X40.222 Y144.344 E16.8489
G1 X39.426 Y143.786 E16.892
G1 X38.739 Y143.099 E16.93511
G1 X38.182 Y142.303 E16.97821
G1 X37.771 Y141.422 E17.02132
G1 X37.519 Y140.483 E17.06444
G1 X37.432 Y139.49 E17.10866
G1 X37.432 Y60.51 E20.61181
G1 X37.519 Y59.517 E20.65603
G1 X37.607 Y59.188 E20.67111
G1 X37.168 Y59.455 F7800
;TYPE:External perimeter
G1 F1800
G1 X37.435 Y58.456 E20.71698
G1 X37.872 Y57.519 E20.76285
G1 X38.465 Y56.672 E20.80872
G1 X39.197 Y55.94 E20.85458
G1 X40.044 Y55.347 E20.90045
G1 X40.981 Y54.91 E20.94632
G1 X41.98 Y54.642 E20.99219
G1 X43.02 Y54.551 E21.03848
G1 X156.98 Y54.551 E26.09318
G1 X158.02 Y54.642 E26.13948
G1 X159.019 Y54.91 E26.18535
G1 X159.956 Y55.347 E26.23122
G1 X160.803 Y55.94 E26.27708
G1 X161.534 Y56.671 E26.32295
G1 X162.128 Y57.518 E26.36881
G1 X162.565 Y58.456 E26.41468
G1 X162.832 Y59.455 E26.46056
G1 X162.923 Y60.494 E26.50684
G1 X162.923 Y139.506 E30.01137
G1 X162.832 Y140.545 E30.05766
G1 X162.565 Y141.544 E30.10353
G1 X162.128 Y142.481 E30.1494
G1 X161.535 Y143.328 E30.19527
G1 X160.803 Y144.06 E30.24113
G1 X159.956 Y144.653 E30.287
G1 X159.019 Y145.09 E30.33287
G1 X158.02 Y145.358 E30.37874
G1 X156.98 Y145.449 E30.42504
G1 X43.02 Y145.449 E35.47974
G1 X41.98 Y145.358 E35.52603
G1 X40.981 Y145.09 E35.5719
G1 X40.044 Y144.653 E35.61777
G1 X39.197 Y144.06 E35.66363
G1 X38.466 Y143.329 E35.7095
G1 X37.872 Y142.482 E35.75537
G1 X37.435 Y141.544 E35.80123
G1 X37.168 Y140.545 E35.84711
G1 X37.077 Y139.506 E35.8934
G1 X37.077 Y60.494 E39.39793
G1 X37.162 Y59.515 E39.44155
G1 X37.544 Y59.318 F7800
G1 E37.44155 F2400
G92 E0
G1 X161.708 Y57.726 F7800
G1 E2 F2400
;TYPE:Solid infill
;WIDTH:0.420443
G1 F1800
G1 X160.4 Y56.418 E2.08215
G1 X159.644 Y55.888 E2.12317
G1 X159.125 Y55.646 E2.14857
G1 X161.828 Y58.349 E2.31833
G1 X161.978 Y58.669 E2.33402
G1 X162.099 Y59.124 E2.35491
G1 X158.351 Y55.375 E2.59035
G1 X157.912 Y55.258 E2.61053
G1 X157.712 Y55.24 E2.61942
G1 X162.235 Y59.763 E2.90344
G1 X162.283 Y60.314 E2.92804
G1 X157.16 Y55.192 E3.24975
G1 X156.639 Y55.174 E3.27294
G1 X162.301 Y60.836 E3.62856
G1 X162.301 Y61.34 E3.65092
G1 X156.135 Y55.174 E4.03817
G1 X155.632 Y55.174 E4.06054
G1 X162.301 Y61.843 E4.47941
G1 X162.301 Y62.347 E4.50177
G1 X155.128 Y55.174 E4.95227
G1 X154.624 Y55.174 E4.97463
G1 X162.301 Y62.85 E5.45676
G1 X162.301 Y63.354 E5.47912
G1 X154.121 Y55.174 E5.99287
G1 X153.617 Y55.174 E6.01524
G1 X162.301 Y63.857 E6.56061
G1 X162.301 Y64.361 E6.58297
G1 X153.114 Y55.174 E7.15998
G1 X152.61 Y55.174 E7.18234
G1 X162.301 Y64.865 E7.79097
G1 X162.301 Y65.368 E7.81333
G1 X152.107 Y55.174 E8.45358
G1 X151.603 Y55.174 E8.47594
G1 X162.301 Y65.872 E9.14782
G1 X162.301 Y66.375 E9.17018
G1 X151.1 Y55.174 E9.87369
G1 X150.596 Y55.174 E9.89605
G1 X162.301 Y66.879 E10.63118
G1 X162.301 Y67.382 E10.65354
G1 X150.093 Y55.174 E11.42029
G1 X149.589 Y55.174 E11.44266
G1 X162.301 Y67.886 E12.24104
G1 X162.301 Y68.389 E12.2634
G1 X149.085 Y55.174 E13.0934
G1 X148.582 Y55.174 E13.11577
G1 X162.301 Y68.893 E13.9774
G1 X162.301 Y69.396 E13.99976
G1 X148.078 Y55.174 E14.89302
G1 X147.575 Y55.174 E14.91538
G1 X162.301 Y69.9 E15.84026
G1 X162.301 Y70.404 E15.86262
G1 X147.071 Y55.174 E16.81913
G1 X146.568 Y55.174 E16.84149
G1 X162.301 Y70.907 E17.82962
G1 X162.301 Y71.411 E17.85199
G1 X146.064 Y55.174 E18.87174
G1 X145.561 Y55.174 E18.89411
G1 X162.301 Y71.914 E19.94549
G1 X162.301 Y72.418 E19.96785
G1 X145.057 Y55.174 E21.05086
G1 X144.553 Y55.174 E21.07322
G1 X162.301 Y72.921 E22.18786
G1 X162.301 Y73.425 E22.21022
G1 X144.05 Y55.174 E23.35648
G1 X143.546 Y55.174 E23.37884
G1 X162.301 Y73.928 E24.55673
G1 X162.301 Y74.432 E24.57909
G1 X143.043 Y55.174 E25.7886
G1 X142.539 Y55.174 E25.81096
G1 X162.301 Y74.935 E27.0521
G1 X162.301 Y75.439 E27.07446
G1 X142.036 Y55.174 E28.34722
G1 X141.532 Y55.174 E28.36958
G1 X162.301 Y75.943 E29.67397
G1 X162.301 Y76.446 E29.69633
G1 X141.029 Y55.174 E31.03234
G1 X140.525 Y55.174 E31.05471
G1 X162.301 Y76.95 E32.42234
G1 X162.301 Y77.453 E32.44471
G1 X140.022 Y55.174 E33.84397
G1 X139.518 Y55.174 E33.86633
G1 X162.301 Y77.957 E35.29722
G1 X162.301 Y78.46 E35.31958
G1 X139.014 Y55.174 E36.7821
G1 X138.511 Y55.174 E36.80446
G1 X162.301 Y78.964 E38.2986
G1 X162.301 Y79.467 E38.32096
G1 X138.007 Y55.174 E39.84673
G1 X137.504 Y55.174 E39.86909
G1 X162.301 Y79.971 E41.42648
G1 X162.301 Y80.474 E41.44884
G1 X137 Y55.174 E43.03786
G1 X136.497 Y55.174 E43.06022
G1 X162.301 Y80.978 E44.68086
G1 X162.301 Y81.482 E44.70322
G1 X135.993 Y55.174 E46.35549
G1 X135.49 Y55.174 E46.37785
G1 X162.301 Y81.985 E48.06174
G1 X162.301 Y82.489 E48.08411
G1 X134.986 Y55.174 E49.79962
G1 X134.483 Y55.174 E49.82199
G1 X162.301 Y82.992 E51.56913
G1 X162.301 Y83.496 E51.59149
G1 X133.979 Y55.174 E53.37026
G1 X133.475 Y55.174 E53.39262
G1 X162.301 Y83.999 E55.20302
G1 X162.301 Y84.503 E55.22538
G1 X132.972 Y55.174 E57.0674
G1 X132.468 Y55.174 E57.08976
G1 X162.301 Y85.006 E58.9634
G1 X162.301 Y85.51 E58.98577
G1 X131.965 Y55.174 E60.89104
G1 X131.461 Y55.174 E60.9134
G1 X162.301 Y86.014 E62.85029
G1 X162.301 Y86.517 E62.87266
G1 X130.958 Y55.174 E64.84118
G1 X130.454 Y55.174 E64.86354
G1 X162.301 Y87.021 E66.86369
G1 X162.301 Y87.524 E66.88605
G1 X129.951 Y55.174 E68.91782
G1 X129.447 Y55.174 E68.94018
G1 X162.301 Y88.028 E71.00358
G1 X162.301 Y88.531 E71.02594
G1 X128.943 Y55.174 E73.12096
G1 X128.44 Y55.174 E73.14333
G1 X162.301 Y89.035 E75.26998
G1 X162.301 Y89.538 E75.29234
G1 X127.936 Y55.174 E77.45061
G1 X127.433 Y55.174 E77.47297
G1 X162.301 Y90.042 E79.66287
G1 X162.301 Y90.545 E79.68524
G1 X126.929 Y55.174 E81.90676
G1 X126.426 Y55.174 E81.92912
G1 X162.301 Y91.049 E84.18227
G1 X162.301 Y91.553 E84.20463
G1 X125.922 Y55.174 E86.48941
G1 X125.419 Y55.174 E86.51177
G1 X162.301 Y92.056 E88.82817
G1 X162.301 Y92.56 E88.85054
G1 X124.915 Y55.174 E91.19856
G1 X124.412 Y55.174 E91.22092
G1 X162.301 Y93.063 E93.60058
G1 X162.301 Y93.567 E93.62294
G1 X123.908 Y55.174 E96.03421
G1 X123.404 Y55.174 E96.05658
G1 X162.301 Y94.07 E98.49948
G1 X162.301 Y94.574 E98.52184
G1 X122.901 Y55.174 E100.99637
G1 X122.397 Y55.174 E101.01873
G1 X162.301 Y95.077 E103.52489
G1 X162.301 Y95.581 E103.54725
G1 X121.894 Y55.174 E106.08503
G1 X121.39 Y55.174 E106.10739
G1 X162.301 Y96.084 E108.67679
G1 X162.301 Y96.588 E108.69916
G1 X120.887 Y55.174 E111.30019
G1 X120.383 Y55.174 E111.32255
G1 X162.301 Y97.092 E113.9552
G1 X162.301 Y97.595 E113.97757
G1 X119.88 Y55.174 E116.64185
G1 X119.376 Y55.174 E116.66421
G1 X162.301 Y98.099 E119.36011
G1 X162.301 Y98.602 E119.38248
G1 X118.873 Y55.174 E122.11001
G1 X118.369 Y55.174 E122.13237
G1 X162.301 Y99.106 E124.89153
G1 X162.301 Y99.609 E124.91389
G1 X117.865 Y55.174 E127.70467
G1 X117.362 Y55.174 E127.72703
G1 X162.301 Y100.113 E130.54944
G1 X162.301 Y100.616 E130.5718
G1 X116.858 Y55.174 E133.42584
G1 X116.355 Y55.174 E133.4482
G1 X162.301 Y101.12 E136.33386
G1 X162.301 Y101.623 E136.35622
G1 X115.851 Y55.174 E139.2735
G1 X115.348 Y55.174 E139.29587
G1 X162.301 Y102.127 E142.24478
G1 X162.301 Y102.631 E142.26714
G1 X114.844 Y55.174 E145.24767
G1 X114.341 Y55.174 E145.27004
G1 X162.301 Y103.134 E148.2822
G1 X162.301 Y103.638 E148.30456
G1 X113.837 Y55.174 E151.34834
G1 X113.334 Y55.174 E151.37071
G1 X162.301 Y104.141 E154.44612
G1 X162.301 Y104.645 E154.46848
G1 X112.83 Y55.174 E157.57552
G1 X112.326 Y55.174 E157.59788
G1 X162.301 Y105.148 E160.73654
G1 X162.301 Y105.652 E160.7589
G1 X111.823 Y55.174 E163.92919
G1 X111.319 Y55.174 E163.95155
G1 X162.301 Y106.155 E167.15347
G1 X162.301 Y106.659 E167.17583
G1 X110.816 Y55.174 E170.40937
G1 X110.312 Y55.174 E170.43173
G1 X162.301 Y107.163 E173.69689
G1 X162.301 Y107.666 E173.71926
G1 X109.809 Y55.174 E177.01605
G1 X109.305 Y55.174 E177.03841
G1 X162.301 Y108.17 E180.36682
G1 X162.301 Y108.673 E180.38919
G1 X108.802 Y55.174 E183.74923
G1 X108.298 Y55.174 E183.77159
G1 X162.301 Y109.177 E187.16325
G1 X162.301 Y109.68 E187.18562
G1 X107.794 Y55.174 E190.60891
G1 X107.291 Y55.174 E190.63127
G1 X162.301 Y110.184 E194.08619
