; generated by PrusaSlicer 2.4.0 on 2023-05-15 at 18:26:35 UTC

; 

; external perimeters extrusion width = 0.45mm
; perimeters extrusion width = 0.45mm
; infill extrusion width = 0.45mm
; solid infill extrusion width = 0.45mm
; top infill extrusion width = 0.45mm
; first layer extrusion width = 0.42mm

M201 X9000 Y9000 Z500 E10000 ; sets maximum accelerations, mm/sec^2
M203 X500 Y500 Z12 E120 ; sets maximum feedrates, mm/sec
M204 P1500 R1500 T1500 ; sets acceleration (P, T) and retract acceleration (R), mm/sec^2
M205 X10.00 Y10.00 Z0.20 E2.50 ; sets the jerk limits, mm/sec
M205 S0 T0 ; sets the minimum extruding and travel feed rate, mm/sec
M107
M190 S60 ; set bed temperature and wait for it to be reached
M104 S210 ; set temperature
;TYPE:Custom
G28 ; home all axes
G1 Z5 F5000 ; lift nozzle
M109 S210 ; set temperature and wait for it to be reached
G21 ; set units to millimeters
G90 ; use absolute coordinates
M82 ; use absolute distances for extrusion
G92 E0
; Filament gcode
M107
;LAYER_CHANGE
;Z:0.3
;HEIGHT:0.3
G1 Z.3 F7800
G1 E-2 F2400
G92 E0
G1 X35.415 Y50.573 F7800
G1 E2 F2400
;TYPE:Skirt/Brim
;WIDTH:0.42
G1 F1800
G1 X37.251 Y49.405 E2.09652
G1 X39.261 Y48.574 E2.19301
G1 X41.387 Y48.104 E2.28955
G1 X43.011 Y47.986 E2.36177
G1 X157.543 Y48.01 E7.44185
G1 X159.702 Y48.296 E7.53842
G1 X161.777 Y48.952 E7.63497
G1 X162.748 Y49.404 E7.68246
G1 X164.584 Y50.573 E7.77901
G1 X166.19 Y52.042 E7.87556
G1 X167.517 Y53.769 E7.97216
G1 X168.524 Y55.7 E8.06877
G1 X169.18 Y57.777 E8.16538
G1 X169.465 Y59.937 E8.262
G1 X169.465 Y140.069 E11.81623
G1 X169.179 Y142.227 E11.91279
G1 X168.902 Y143.261 E11.96029
G1 X168.07 Y145.273 E12.05683
G1 X166.902 Y147.11 E12.15338
G1 X166.19 Y147.958 E12.20252
G1 X164.585 Y149.427 E12.29902
G1 X162.749 Y150.595 E12.39553
G1 X160.738 Y151.426 E12.49203
G1 X158.614 Y151.896 E12.58856
G1 X156.989 Y152.014 E12.66079
G1 X43.01 Y152.014 E17.71631
G1 X41.389 Y151.897 E17.78839
G1 X40.298 Y151.704 E17.83753
G1 X39.264 Y151.427 E17.88504
G1 X37.252 Y150.595 E17.98158
G1 X35.416 Y149.427 E18.07813
G1 X34.567 Y148.715 E18.12727
G1 X33.098 Y147.11 E18.22377
G1 X31.93 Y145.274 E18.32028
G1 X31.099 Y143.264 E18.41678
G1 X30.629 Y141.139 E18.51331
G1 X30.511 Y139.515 E18.58553
G1 X30.511 Y60.485 E22.09087
G1 X30.629 Y58.864 E22.16296
G1 X30.821 Y57.773 E22.2121
G1 X31.098 Y56.739 E22.25961
G1 X31.93 Y54.727 E22.35615
G1 X33.098 Y52.89 E22.4527
G1 X33.81 Y52.042 E22.50184
G1 X35.371 Y50.614 E22.59567
G1 E20.59567 F2400
G92 E0
G1 X66.61 Y71.934 F7800
G1 E2 F2400
;TYPE:Perimeter
G1 F1800
G1 X116.986 Y71.934 E4.2344
G1 X116.986 Y128.066 E6.72409
G1 X65.855 Y128.066 E8.99201
G1 X65.855 Y71.934 E11.4817
G1 X66.55 Y71.934 E11.51255
G1 X66.21 Y72.29 F7800
;TYPE:External perimeter
G1 F1800
G1 X116.63 Y72.29 E13.74892
G1 X116.63 Y127.71 E16.20707
G1 X66.21 Y127.71 E18.44344
G1 X66.21 Y72.35 E20.89892
G1 X66.113 Y71.902 F7800
G1 E18.89892 F2400
G92 E0
G1 X122.75 Y71.923 F7800
G1 E2 F2400
;TYPE:Perimeter
G1 F1800
G1 X123.075 Y70.029 E2.08526
G1 X123.785 Y68.019 E2.1798
G1 X124.825 Y66.158 E2.27435
G1 X126.164 Y64.5 E2.3689
G1 X127.764 Y63.091 E2.46345
G1 X129.579 Y61.974 E2.558
G1 X131.557 Y61.179 E2.65254
G1 X133.641 Y60.73 E2.74709
G1 X135.719 Y60.642 E2.83933
G1 X137.884 Y60.91 E2.9361
G1 X139.923 Y61.534 E3.0307
G1 X141.826 Y62.494 E3.12525
G1 X143.54 Y63.761 E3.2198
G1 X145.015 Y65.3 E3.31435
G1 X146.209 Y67.066 E3.40889
G1 X147.065 Y68.961 E3.50113
G1 X147.624 Y71.071 E3.59791
G1 X147.805 Y73.196 E3.69251
G1 X147.624 Y75.32 E3.78705
G1 X147.087 Y77.382 E3.8816
G1 X146.209 Y79.325 E3.97615
G1 X145.015 Y81.091 E4.0707
G1 X143.54 Y82.63 E4.16524
G1 X141.826 Y83.897 E4.25979
G1 X139.923 Y84.857 E4.35434
G1 X137.885 Y85.481 E4.44889
G1 X135.771 Y85.752 E4.54344
G1 X133.641 Y85.662 E4.63798
G1 X131.557 Y85.212 E4.73253
G1 X129.579 Y84.418 E4.82708
G1 X127.808 Y83.327 E4.91932
G1 X126.165 Y81.893 E5.01609
G1 X124.825 Y80.233 E5.11069
G1 X123.785 Y78.372 E5.20524
G1 X123.075 Y76.362 E5.29981
G1 X122.714 Y74.235 E5.39548
G1 X122.715 Y72.13 E5.48888
G1 X122.74 Y71.983 E5.49551
G1 X123.07 Y72.321 F7800
;TYPE:External perimeter
G1 F1800
G1 X123.07 Y72.16 E5.50262
G1 X123.42 Y70.119 E5.59448
G1 X124.11 Y68.166 E5.68635
G1 X125.12 Y66.358 E5.77821
G1 X126.422 Y64.747 E5.87007
G1 X127.976 Y63.378 E5.96193
G1 X129.74 Y62.292 E6.0538
G1 X131.662 Y61.52 E6.14566
G1 X133.686 Y61.084 E6.23752
G1 X135.704 Y60.998 E6.32711
G1 X137.809 Y61.259 E6.4212
G1 X139.79 Y61.865 E6.51308
G1 X141.639 Y62.798 E6.60494
G1 X143.304 Y64.029 E6.69681
G1 X144.738 Y65.525 E6.78867
G1 X145.897 Y67.241 E6.88053
G1 X146.729 Y69.081 E6.97012
G1 X147.272 Y71.132 E7.06421
G1 X147.448 Y73.196 E7.15609
G1 X147.272 Y75.259 E7.24795
G1 X146.75 Y77.264 E7.33981
G1 X145.897 Y79.151 E7.43168
G1 X144.738 Y80.867 E7.52354
G1 X143.304 Y82.362 E7.6154
G1 X141.639 Y83.593 E7.70726
G1 X139.79 Y84.526 E7.79913
G1 X137.81 Y85.132 E7.89099
G1 X135.755 Y85.395 E7.98285
G1 X133.686 Y85.308 E8.07472
G1 X131.662 Y84.871 E8.16658
G1 X129.74 Y84.099 E8.25844
G1 X128.02 Y83.04 E8.34803
G1 X126.422 Y81.645 E8.44212
G1 X125.12 Y80.033 E8.534
G1 X124.11 Y78.225 E8.62586
G1 X123.42 Y76.272 E8.71773
G1 X123.069 Y74.206 E8.81072
G1 X123.07 Y72.381 E8.89166
G1 X122.929 Y72.244 F7800
G1 E6.89166 F2400
G92 E0
G1 X123.47 Y54.907 F7800
G1 E2 F2400
;TYPE:Perimeter
G1 F1800
G1 X156.965 Y54.907 E3.48563
G1 X157.958 Y54.994 E3.52988
G1 X158.897 Y55.246 E3.57298
G1 X159.778 Y55.656 E3.61609
G1 X160.574 Y56.214 E3.6592
G1 X161.261 Y56.901 E3.7023
G1 X161.818 Y57.697 E3.74541
G1 X162.229 Y58.578 E3.78852
G1 X162.481 Y59.517 E3.83163
G1 X162.568 Y60.51 E3.87585
G1 X162.568 Y139.49 E7.379
G1 X162.481 Y140.483 E7.42322
G1 X162.229 Y141.422 E7.46633
G1 X161.818 Y142.303 E7.50944
G1 X161.261 Y143.099 E7.55255
G1 X160.574 Y143.786 E7.59565
G1 X159.778 Y144.344 E7.63876
G1 X158.897 Y144.754 E7.68187
G1 X157.958 Y145.006 E7.72498
G1 X156.965 Y145.093 E7.7692
G1 X43.035 Y145.093 E12.82253
G1 X42.042 Y145.006 E12.86675
G1 X41.103 Y144.754 E12.90986
G1 X40.222 Y144.344 E12.95297
G1 X39.426 Y143.786 E12.99608
G1 X38.739 Y143.099 E13.03918
G1 X38.182 Y142.303 E13.08229
G1 X37.771 Y141.422 E13.1254
G1 X37.519 Y140.483 E13.16851
G1 X37.432 Y139.49 E13.21273
G1 X37.432 Y60.51 E16.71588
G1 X37.519 Y59.517 E16.7601
G1 X37.771 Y58.578 E16.80322
G1 X38.182 Y57.697 E16.84632
G1 X38.739 Y56.901 E16.88943
G1 X39.426 Y56.214 E16.93254
G1 X40.222 Y55.656 E16.97564
G1 X41.103 Y55.246 E17.01875
G1 X42.042 Y54.994 E17.06187
G1 X43.035 Y54.907 E17.10608
G1 X123.41 Y54.907 E20.67111
G1 X123.07 Y54.551 F7800
;TYPE:External perimeter
G1 F1800
G1 X156.98 Y54.551 E22.17517
G1 X158.02 Y54.642 E22.22147
G1 X159.019 Y54.91 E22.26734
G1 X159.956 Y55.347 E22.31321
G1 X160.803 Y55.94 E22.35908
G1 X161.535 Y56.672 E22.40495
G1 X162.128 Y57.519 E22.45081
G1 X162.565 Y58.456 E22.49668
G1 X162.832 Y59.455 E22.54255
G1 X162.923 Y60.494 E22.58884
G1 X162.923 Y139.506 E26.09337
G1 X162.832 Y140.545 E26.13966
G1 X162.565 Y141.544 E26.18553
G1 X162.128 Y142.482 E26.2314
G1 X161.534 Y143.329 E26.27727
G1 X160.803 Y144.06 E26.32313
G1 X159.956 Y144.653 E26.369
G1 X159.019 Y145.09 E26.41487
G1 X158.02 Y145.358 E26.46074
G1 X156.98 Y145.449 E26.50703
G1 X43.02 Y145.449 E31.56174
G1 X41.98 Y145.358 E31.60802
G1 X40.981 Y145.09 E31.6539
G1 X40.044 Y144.653 E31.69977
G1 X39.197 Y144.06 E31.74563
G1 X38.465 Y143.328 E31.7915
G1 X37.872 Y142.481 E31.83736
G1 X37.435 Y141.544 E31.88323
G1 X37.168 Y140.545 E31.92911
G1 X37.077 Y139.506 E31.97539
G1 X37.077 Y60.494 E35.47992
G1 X37.168 Y59.455 E35.52621
G1 X37.435 Y58.456 E35.57208
G1 X37.872 Y57.518 E35.61795
G1 X38.466 Y56.671 E35.66382
G1 X39.197 Y55.94 E35.70968
G1 X40.044 Y55.347 E35.75555
G1 X40.981 Y54.91 E35.80142
G1 X41.98 Y54.642 E35.84729
G1 X43.02 Y54.551 E35.89358
G1 X123.01 Y54.551 E39.44155
G1 X123.27 Y54.898 F7800
G1 E37.44155 F2400
G92 E0
G1 X161.708 Y57.726 F7800
G1 E2 F2400
;TYPE:Solid infill
;WIDTH:0.420443
G1 F1800
G1 X160.401 Y56.418 E2.08214
G1 X159.644 Y55.888 E2.12316
G1 X159.125 Y55.646 E2.14857
G1 X161.828 Y58.349 E2.31833
G1 X161.978 Y58.669 E2.33402
G1 X162.099 Y59.124 E2.35491
G1 X158.351 Y55.375 E2.59034
G1 X157.912 Y55.258 E2.61052
G1 X157.712 Y55.24 E2.61941
G1 X162.235 Y59.763 E2.90343
G1 X162.283 Y60.314 E2.92803
G1 X157.16 Y55.192 E3.24974
G1 X156.639 Y55.174 E3.27293
G1 X162.301 Y60.836 E3.62855
G1 X162.301 Y61.34 E3.65092
G1 X156.135 Y55.174 E4.03817
G1 X155.632 Y55.174 E4.06053
G1 X162.301 Y61.843 E4.4794
G1 X162.301 Y62.347 E4.50176
G1 X155.128 Y55.174 E4.95226
G1 X154.624 Y55.174 E4.97463
G1 X162.301 Y62.85 E5.45675
G1 X162.301 Y63.354 E5.47911
G1 X154.121 Y55.174 E5.99287
G1 X153.617 Y55.174 E6.01523
G1 X162.301 Y63.857 E6.5606
G1 X162.301 Y64.361 E6.58297
G1 X153.114 Y55.174 E7.15997
G1 X152.61 Y55.174 E7.18233
G1 X162.301 Y64.865 E7.79096
G1 X162.301 Y65.368 E7.81332
G1 X152.107 Y55.174 E8.45357
G1 X151.603 Y55.174 E8.47594
G1 X162.301 Y65.872 E9.14781
G1 X162.301 Y66.375 E9.17018
G1 X151.1 Y55.174 E9.87368
G1 X150.596 Y55.174 E9.89604
G1 X162.301 Y66.879 E10.63117
G1 X162.301 Y67.382 E10.65353
G1 X150.093 Y55.174 E11.42029
G1 X149.589 Y55.174 E11.44265
G1 X162.301 Y67.886 E12.24103
G1 X162.301 Y68.389 E12.26339
G1 X149.085 Y55.174 E13.0934
G1 X148.582 Y55.174 E13.11576
G1 X162.301 Y68.893 E13.97739
G1 X162.301 Y69.396 E13.99975
G1 X148.078 Y55.174 E14.89301
G1 X147.575 Y55.174 E14.91537
G1 X162.301 Y69.9 E15.84025
G1 X162.301 Y70.404 E15.86261
G1 X147.071 Y55.174 E16.81912
G1 X146.568 Y55.174 E16.84148
G1 X162.301 Y70.907 E17.82962
G1 X162.301 Y71.411 E17.85198
G1 X146.064 Y55.174 E18.87174
G1 X145.561 Y55.174 E18.8941
G1 X162.301 Y71.914 E19.94548
G1 X162.301 Y72.418 E19.96784
G1 X145.057 Y55.174 E21.05085
G1 X144.553 Y55.174 E21.07322
G1 X162.301 Y72.921 E22.18785
G1 X162.301 Y73.425 E22.21021
G1 X144.05 Y55.174 E23.35647
G1 X143.546 Y55.174 E23.37883
G1 X162.301 Y73.928 E24.55672
G1 X162.301 Y74.432 E24.57908
G1 X143.043 Y55.174 E25.78859
G1 X142.539 Y55.174 E25.81095
G1 X162.301 Y74.935 E27.05209
G1 X162.301 Y75.439 E27.07445
G1 X142.036 Y55.174 E28.34721
G1 X141.532 Y55.174 E28.36958
G1 X162.301 Y75.943 E29.67396
G1 X162.301 Y76.446 E29.69633
G1 X141.029 Y55.174 E31.03234
G1 X140.525 Y55.174 E31.0547
G1 X162.301 Y76.95 E32.42234
G1 X162.301 Y77.453 E32.4447
G1 X140.022 Y55.174 E33.84396
G1 X139.518 Y55.174 E33.86633
G1 X162.301 Y77.957 E35.29721
G1 X162.301 Y78.46 E35.31958
G1 X139.014 Y55.174 E36.78209
G1 X138.511 Y55.174 E36.80445
G1 X162.301 Y78.964 E38.29859
G1 X162.301 Y79.467 E38.32095
G1 X138.007 Y55.174 E39.84672
G1 X137.504 Y55.174 E39.86908
G1 X162.301 Y79.971 E41.42647
G1 X162.301 Y80.474 E41.44883
G1 X137 Y55.174 E43.03785
G1 X136.497 Y55.174 E43.06021
G1 X162.301 Y80.978 E44.68085
G1 X162.301 Y81.482 E44.70322
G1 X135.993 Y55.174 E46.35548
G1 X135.49 Y55.174 E46.37784
G1 X162.301 Y81.985 E48.06174
G1 X162.301 Y82.489 E48.0841
G1 X145.805 Y65.993 E49.12012
G1 X145.224 Y65.132 E49.16625
G1 X143.717 Y63.561 E49.26293
G1 X142.395 Y62.583 E49.33597
G1 X134.986 Y55.174 E49.80128
G1 X134.483 Y55.174 E49.82365
G1 X141.176 Y61.867 E50.24403
G1 X140.16 Y61.355 E50.29454
G1 X133.979 Y55.174 E50.68277
G1 X133.475 Y55.174 E50.70513
G1 X139.395 Y61.094 E51.07693
G1 X138.67 Y60.871 E51.11065
G1 X132.972 Y55.174 E51.46849
G1 X132.468 Y55.174 E51.49085
G1 X137.944 Y60.649 E51.83473
G1 X137.368 Y60.577 E51.86049
G1 X131.965 Y55.174 E52.19985
G1 X131.461 Y55.174 E52.22221
G1 X136.793 Y60.506 E52.5571
G1 X136.219 Y60.435 E52.58282
G1 X130.958 Y55.174 E52.91323
G1 X130.454 Y55.174 E52.93559
G1 X135.658 Y60.377 E53.26239
G1 X135.174 Y60.398 E53.28386
G1 X129.951 Y55.174 E53.61195
G1 X129.447 Y55.174 E53.63432
G1 X134.691 Y60.418 E53.96369
G1 X134.208 Y60.439 E53.98516
G1 X128.943 Y55.174 E54.31583
G1 X128.44 Y55.174 E54.33819
G1 X133.725 Y60.459 E54.67015
G1 X133.607 Y60.464 E54.67542
G1 X133.294 Y60.532 E54.68962
G1 X127.936 Y55.174 E55.02612
G1 X127.433 Y55.174 E55.04848
G1 X132.88 Y60.621 E55.39059
G1 X132.466 Y60.71 E55.40941
G1 X126.929 Y55.174 E55.75713
G1 X126.426 Y55.174 E55.77949
G1 X132.051 Y60.8 E56.13281
G1 X131.637 Y60.889 E56.15163
G1 X125.922 Y55.174 E56.51056
G1 X125.419 Y55.174 E56.53292
G1 X131.257 Y61.012 E56.8996
G1 X130.898 Y61.156 E56.91679
G1 X124.915 Y55.174 E57.29253
G1 X124.412 Y55.174 E57.31489
G1 X130.539 Y61.301 E57.69969
G1 X130.179 Y61.445 E57.71689
G1 X123.908 Y55.174 E58.11076
G1 X123.404 Y55.174 E58.13312
G1 X129.82 Y61.589 E58.53605
G1 X129.461 Y61.734 E58.55324
G1 X122.901 Y55.174 E58.96524
G1 X122.397 Y55.174 E58.98761
G1 X129.149 Y61.925 E59.41164
G1 X128.837 Y62.117 E59.42789
G1 X121.894 Y55.174 E59.86398
G1 X121.39 Y55.174 E59.88634
G1 X128.526 Y62.309 E60.33448
G1 X128.214 Y62.501 E60.35073
G1 X120.887 Y55.174 E60.81092
G1 X120.383 Y55.174 E60.83328
G1 X127.902 Y62.693 E61.30552
G1 X127.593 Y62.887 E61.32175
G1 X119.88 Y55.174 E61.80617
G1 X119.376 Y55.174 E61.82853
G1 X127.325 Y63.123 E62.32775
G1 X127.057 Y63.358 E62.3436
G1 X118.873 Y55.174 E62.85762
G1 X118.369 Y55.174 E62.87999
G1 X126.789 Y63.594 E63.40882
G1 X126.521 Y63.83 E63.42466
G1 X117.865 Y55.174 E63.9683
G1 X117.362 Y55.174 E63.99066
G1 X126.254 Y64.065 E64.5491
G1 X125.986 Y64.301 E64.56495
G1 X116.858 Y55.174 E65.13819
G1 X116.355 Y55.174 E65.16055
G1 X125.758 Y64.577 E65.75114
G1 X125.533 Y64.856 E65.76705
G1 X115.851 Y55.174 E66.37513
G1 X115.348 Y55.174 E66.3975
G1 X125.308 Y65.135 E67.02308
G1 X125.083 Y65.413 E67.03898
G1 X114.844 Y55.174 E67.68207
G1 X114.341 Y55.174 E67.70443
G1 X124.859 Y65.692 E68.36501
G1 X124.634 Y65.97 E68.38091
G1 X113.837 Y55.174 E69.05899
G1 X113.334 Y55.174 E69.08135
G1 X124.447 Y66.287 E69.77934
G1 X124.267 Y66.61 E69.79577
G1 X112.83 Y55.174 E70.51405
G1 X112.326 Y55.174 E70.53641
G1 X124.086 Y66.933 E71.27498
G1 X123.906 Y67.257 E71.29141
G1 X111.823 Y55.174 E72.05027
G1 X111.319 Y55.174 E72.07263
G1 X123.725 Y67.58 E72.85178
G1 X123.545 Y67.903 E72.86822
G1 X110.816 Y55.174 E73.66766
G1 X110.312 Y55.174 E73.69002
G1 X123.412 Y68.274 E74.51277
G1 X123.281 Y68.646 E74.53029
G1 X109.809 Y55.174 E75.37641
G1 X109.305 Y55.174 E75.39877
G1 X123.149 Y69.018 E76.26826
G1 X123.018 Y69.39 E76.28579
G1 X108.802 Y55.174 E77.17864
G1 X108.298 Y55.174 E77.20101
G1 X122.886 Y69.762 E78.11723
G1 X122.816 Y69.961 E78.12662
G1 X122.782 Y70.161 E78.13561
G1 X107.794 Y55.174 E79.07689
G1 X107.291 Y55.174 E79.09925
G1 X122.708 Y70.591 E80.06753
G1 X122.634 Y71.021 E80.08689
G1 X106.787 Y55.174 E81.08217
G1 X106.284 Y55.174 E81.10453
G1 X122.561 Y71.451 E82.1268
G1 X122.487 Y71.88 E82.14616
G1 X105.78 Y55.174 E83.19543
G1 X105.277 Y55.174 E83.21779
G1 X122.448 Y72.345 E84.29623
G1 X122.448 Y72.848 E84.31858
G1 X104.773 Y55.174 E85.42863
G1 X104.27 Y55.174 E85.451
G1 X122.447 Y73.352 E86.59265
G1 X122.447 Y73.855 E86.61501
G1 X103.766 Y55.174 E87.78827
G1 X103.263 Y55.174 E87.81064
G1 X122.467 Y74.379 E89.0168
G1 X122.57 Y74.985 E89.04413
G1 X102.759 Y55.174 E90.28839
G1 X102.255 Y55.174 E90.31075
G1 X122.674 Y75.592 E91.59312
G1 X122.777 Y76.198 E91.62044
G1 X101.752 Y55.174 E92.9409
G1 X101.248 Y55.174 E92.96326
G1 X122.986 Y76.912 E94.32851
G1 X123.261 Y77.69 E94.36518
G1 X100.745 Y55.174 E95.77933
G1 X100.241 Y55.174 E95.8017
G1 X116.735 Y71.668 E96.8376
G1 X116.232 Y71.668 E96.85996
G1 X99.738 Y55.174 E97.89586
G1 X99.234 Y55.174 E97.91823
G1 X115.728 Y71.668 E98.95413
G1 X115.225 Y71.668 E98.97649
G1 X98.731 Y55.174 E100.01239
G1 X98.227 Y55.174 E100.03475
G1 X114.721 Y71.668 E101.07066
G1 X114.217 Y71.668 E101.09302
G1 X97.724 Y55.174 E102.12892
G1 X97.22 Y55.174 E102.15128
G1 X113.714 Y71.668 E103.18718
G1 X113.21 Y71.668 E103.20955
G1 X96.716 Y55.174 E104.24545
G1 X96.213 Y55.174 E104.26781
G1 X112.707 Y71.668 E105.30371
G1 X112.203 Y71.668 E105.32608
G1 X95.709 Y55.174 E106.36198
G1 X95.206 Y55.174 E106.38434
G1 X111.7 Y71.668 E107.42024
G1 X111.196 Y71.668 E107.4426
G1 X94.702 Y55.174 E108.47851
G1 X94.199 Y55.174 E108.50087
G1 X110.693 Y71.668 E109.53677
G1 X110.189 Y71.668 E109.55913
G1 X93.695 Y55.174 E110.59503
G1 X93.192 Y55.174 E110.6174
G1 X109.685 Y71.668 E111.6533
G1 X109.182 Y71.668 E111.67566
